!!!OTL: 433. Das treue Roeschen.
!!!ARE: Europa, Mitteleuropa, Deutschland, Rheinland
!!!SCT: B0433
!!!TXL: @@DE
!!!YEM: Copyright 1995, estate of Helmut Schaffrath.
**kern	**text
*ICvox	*
*Ivox	*
*clefG2	*
*M3/4	*
*k[f#c#]	*
*D:	*
!LO:TX:a:t=Mäßig bewegt.	!
{8d	Soll
8f#	ich
=1	=1
4a	euch
4b	mein
8.a	Lieb-
16g	-chen
=2	=2
8gL	nen-
8f#J	.
4f#}	-nen?
{8e	Röschen
8f#	.
=3	=3
4g	heißt
4b	das
8.a	hol-
16g	-de
=4	=4
4f#	Kind.
4r}	.
{8d	Wollt
8f#	ihr
=5	=5
4a	ſie
4b	noch
8.a	wei-
16g	-ter
=6	=6
8gL	ken-
8f#J	.
4f#}	-nen?
{8e	Ei
8f#	ſo
=7	=7
4g	hor-
4b	-chet
8.a	auf
16g	ge-
=8	=8
4f#	-ſchwind!
4r}	.
{8a	Sie
8a	hat
=9	=9
4a	Aeuglein
4e	.
8a	wie
8b	ʒwei
=10	=10
4cc#	Ster-
4cc#}	-ne,
{8b	ei-
8cc#	-nen
=11	=11
4.dd	ro-
8b	-ſen-
8ee	-far-
8dd	-b'nen
=12	=12
(8cc#;\L	Mund,
8b	.
8a	.
8gJ)}	.
{8.f#	und
16f#	ſie
=13	=13
4.a	ſcherʒt
8b	mit
8.a	mir
16g	ſo
=14	=14
8gL	ger-
8f#J	.
4f#}	-ne
{8e	oft
8f#	in
=15	=15
4g	ſchö-
4b	-ner
8.a	A-
16g	-bend-
=16	=16
4f#	-ſtund'.
4r}	.
==	==
!!!AGN: Liebes - Lied, Liebes - Lust, Treue
!!!GTL: Liebeslieder - Liebeslust
!!!ONB: ESAC (Essen Associative Code) Database: BOEHME
!!!AMT: simple triple
!!!AIN: vox
!!!EED: Helmut Schaffrath
!!!EEV: 1.0
!!Aus den Rheinlanden: Becker, Volksliederborn Nr. 142.
!!@@COMMENT:"Offenbar folgt aus der formglatten Sprache, daß hier eine volksthümliche Dichtung vorliegt,
!!wenn gleich Verf. unermittelt iſt. - Den Text hat Herr Becker aus mehreren geſchriebenen Lieder-
!!büchern, die Melodie mehrfach mündlich. Vergl. des Dülkener Fiedler's Liederb. S. 23."
!!@@END:
!!!URL-scan: https://archive.org/details/BoehmeVtLieder1895/page/n353/mode/2up
!!!ENC: Anna Maria Matuszewska
!!!EEV: 2024/09/07
*-	*-
